X: 2834
T: Barbara Bane Of New Deer
R: barndance
M: 4/4
K: Dmajor
f>e|:d4A2d2|FAdfa2gf|g2B2gfed|d4f3e|
d4A2d2|FAdfa2gf|g2B2gfed|cAce agfe|
d4A2d2|FAdfa2gf|g2B2gfed|cAce agfe|
d4A2d2|FAdfa2gf|g2B2gfed|d4d2de|
|:f2B2Bcde|fdBd bfdB|e2A2ABcd|ecAc aecA|
[1 B2Bcde|fdBd bfdB|e2A2fedc|B4B2:|
[2 d4A2d2|FAdfa2gf|g2B2gfed|d4d2||

